X: 37201
T: Sir Ulick Burke
R: reel
M: 4/4
K: Dminor
dAde f2 ed|cdcB AGFE|F2 FD FGAB|AGAE DEFG|
F2 F/G/A G2G2|AGAd c3c|dcde fgfe|edcB A4|
c2 c/d/e d2 e/f/g|fedc A2 GF|c=Bcd cA_BA|GFED D4||
A,DDC DEFD|EDEC EFGE|F2c2 cdcG|Acde d4|
fefg f/g/a a/g/f|edef e/f/g fe|dAde fefg|AGFA G4|
cBAd ccce|fedc A2 F2|c=Bcd cAFA|GFED D4||

